flaticon/arrows/repeat-1.svg

<svg xmlns="http://www.w3.org/2000/svg" width="32" height="32" viewBox="0 0 24 24">
    <path d="M16.800781 4.800781L8.164062 4.800781 11.082031 1.882812C11.238281 1.726562 11.238281 1.472656 11.082031 1.316406 10.925781 1.160156 10.671875 1.160156 10.515625 1.316406L6.917969 4.917969C6.878906 4.953125 6.851562 4.996094 6.832031 5.046875 6.789062 5.144531 6.789062 5.253906 6.832031 5.351562 6.851562 5.402344 6.878906 5.445312 6.917969 5.484375L10.515625 9.082031C10.59375 9.160156 10.699219 9.199219 10.800781 9.199219 10.902344 9.199219 11.003906 9.160156 11.082031 9.082031 11.238281 8.925781 11.238281 8.671875 11.082031 8.515625L8.164062 5.601562 16.800781 5.601562C20.328125 5.601562 23.199219 8.472656 23.199219 12 23.199219 13.699219 22.53125 15.304688 21.320312 16.519531 21.164062 16.675781 21.164062 16.925781 21.320312 17.082031 21.398438 17.160156 21.503906 17.199219 21.605469 17.199219 21.707031 17.199219 21.808594 17.160156 21.886719 17.082031 23.25 15.71875 24 13.914062 24 12 24 8.03125 20.769531 4.800781 16.800781 4.800781zM14.28125 14.917969C14.125 14.761719 13.875 14.761719 13.71875 14.917969 13.5625 15.074219 13.5625 15.328125 13.71875 15.484375L16.632812 18.398438 7.199219 18.398438C3.671875 18.398438.800781 15.527344.800781 12 .800781 10.488281 1.34375 9.015625 2.332031 7.859375 2.472656 7.691406 2.453125 7.4375 2.285156 7.292969 2.121094 7.152344 1.867188 7.171875 1.722656 7.339844.613281 8.640625 0 10.296875 0 12 0 15.96875 3.230469 19.199219 7.199219 19.199219L16.632812 19.199219 13.71875 22.117188C13.5625 22.273438 13.5625 22.527344 13.71875 22.683594 13.796875 22.761719 13.898438 22.800781 14 22.800781 14.101562 22.800781 14.203125 22.761719 14.28125 22.683594L17.882812 19.082031C18.039062 18.925781 18.039062 18.671875 17.882812 18.515625zM14.28125 14.917969"/>
</svg>

<svg xmlns="http://www.w3.org/2000/svg" width="32" height="32" viewBox="0 0 24 24">
    <path d="M16.8 4.8H8.165l2.918-2.917a.4.4 0 0 0-.566-.567L6.918 4.918a.326.326 0 0 0-.086.129.376.376 0 0 0 0 .305.37.37 0 0 0 .086.132l3.598 3.598a.405.405 0 0 0 .285.117.4.4 0 0 0 .281-.684L8.164 5.603h8.637A6.407 6.407 0 0 1 23.199 12c0 1.7-.668 3.305-1.879 4.52a.396.396 0 0 0 0 .562.405.405 0 0 0 .285.117c.102 0 .204-.039.282-.117A7.144 7.144 0 0 0 24 12c0-3.969-3.23-7.2-7.2-7.2zm0 0M14.281 14.918a.396.396 0 0 0-.562 0 .4.4 0 0 0 0 .566l2.914 2.914H7.199A6.407 6.407 0 0 1 .801 12c0-1.512.543-2.984 1.531-4.14a.406.406 0 0 0-.047-.567.401.401 0 0 0-.562.047A7.194 7.194 0 0 0 0 12c0 3.969 3.23 7.2 7.2 7.2h9.433l-2.914 2.917a.4.4 0 0 0 .281.684c.102 0 .203-.04.281-.117l3.602-3.602a.4.4 0 0 0 0-.566zm0 0"/>
</svg>
